X:30
T:Merry Scotchman Breakdown
C:Andy De Jarlis
M:2/4
L:1/16
Z:abc by Bruce Osborne - bosborne@kos.net
K:A
(3efg|a2a2 efed|cAcd ecef|=g2=G2 =GA=GF|=GAB=c defg|!
a2a2 efed|cAcd ecef|=gf=ge dB=GB|A2AA A2:|!
|:A2|EA2A ABcd|efec [A2e2]cA|=G2B=G D=GA=G|=c=GB=G ABA=G|!
EA2A ABcd|efec e2ef|=gf=ge dB=GB|A2AA A2:|!
